X:1
T:Title
%%score { ( 1 4 ) | ( 2 3 ) }
L:1/8
Q:1/4=100
M:6/8
K:C
V:1 treble nm="Grand Piano"
V:4 treble 
V:2 bass 
V:3 bass 
V:1
 [Ec]2 [Ec] .[CGc]2 [CGc] | d3 A3 | B2 B BAB | [Ec]3 [EG]3 | [Ec]2 [EG] [Ge]3 | d2 A d3 | .c3 .B3 | %7
w: W.~H.~Doane * * *|||||||
 [EGc]6 | B2 B B_B=B | d3 B3 | [^FA]2 [FA] [FA][EG][FA] | B3 d3 | B2 [GB] [Gc]2 [Gc] | %13
w: ||||||
 [Gd]2 [Gd] [Ge]3 | [Gd]2 [GB] [Gd]2 [GB] | [Ac]B[C^FA] [B,G]3 | [CEc]2 [Ec] .[CGc]2 [CGc] | %17
w: ||||
 d3 A3 | B2 B BAB | [Ec]3 [EG]3 | [FA]2 [GB] [Gc]2 [Gc] |[M:7/8] [Gf]2 [Gf] [Ge]3 d | %22
w: |||||
[M:3/4] c2 c [FB]2 [FB] | [Ec]6 |] %24
w: ||
V:2
 [C,G,]2 [C,G,] z[K:treble] BE, | [F,A,F]3 [F,DF]3 | [G,DF]2 [G,DF] [G,DF]2 [G,DF] | %3
 [C,C]3 [C,C]3 | [C,G,]2 [C,C] [C,G,]3 | [F,A,F]2 [F,DF] [F,A,F]3 | %6
 [G,E]2 [G,EG] .[G,DG]2[K:bass] G, | C,6 | z3 .D3 | [G,B,G]3 [G,DG]3 | [D,D]2 [D,D] [D,D]2 [D,D] | %11
 [G,DG]3 [G,B,G]3 | [G,DG]2[K:bass] [F,D] [E,C]2 [E,C] | [D,B,]2 [D,B,] [^C,_B,]3 | %14
 [D,B,]2 [D,D] [D,B,]2 [D,D] | z GD, G,3 | C,2 [C,G,] z[K:treble] BE, | [F,A,F]3 [F,DF]3 | %18
 [G,DF]2 [G,DF] [G,DF]2 [G,DF] | [C,C]3 [C,C]3 | [F,C]2 [F,D] [E,C]2 [E,C] | %21
[M:7/8] [D,B,]2 [D,B,] [C,C]3 [F,A,F] |[M:3/4] [G,E]2 [G,E] [G,,G,]2 [G,,G,] | [C,G,]6 |] %24
V:3
 z3 .E,3[K:treble] | x6 | x6 | x6 | x6 | x6 | x5[K:bass] x | x6 | %8
 [G,DG]2 [G,DG] [G,G]-[G,^CG][G,DG] | x6 | x6 | x6 | x2[K:bass] x4 | x6 | x6 | .[D,D]3 z3 | %16
 z3 .E,3[K:treble] | x6 | x6 | x6 | x6 |[M:7/8] x7 |[M:3/4] x6 | x6 |] %24
V:4
 x6 | x6 | x6 | x6 | x6 | x6 | z Cc z E[FGB] | x6 | x6 | x6 | x6 | x6 | x6 | x6 | x6 | x6 | x6 | %17
 x6 | x6 | x6 | x6 |[M:7/8] x7 |[M:3/4] x6 | x6 |] %24

